static/icons/print.svg

<svg xmlns="http://www.w3.org/2000/svg" width="24" height="24" viewBox="0 0 24 24">
  <path fill-rule="evenodd" d="M16.8076923,5 L16.8076923,8.19230769 L7.19230769,8.19230769 L7.19230769,5 L16.8076923,5 Z M17.5961538,12.2115385 C17.8269242,12.2115385 18.0224351,12.1346162 18.1826923,11.9807692 C18.3429495,11.8269223 18.4230769,11.6410267 18.4230769,11.4230769 C18.4230769,11.2051271 18.3429495,11.0128213 18.1826923,10.8461538 C18.0224351,10.6794863 17.8269242,10.5961538 17.5961538,10.5961538 C17.3653835,10.5961538 17.1762828,10.6762813 17.0288462,10.8365385 C16.8814095,10.9967957 16.8076923,11.1923065 16.8076923,11.4230769 C16.8076923,11.6538473 16.8846146,11.842948 17.0384615,11.9903846 C17.1923085,12.1378213 17.378204,12.2115385 17.5961538,12.2115385 Z M15.1923077,17.8076923 L15.1923077,13.8269231 L8.80769231,13.8269231 L8.80769231,17.8076923 L15.1923077,17.8076923 Z M17.5961538,9.01923077 C18.0192329,9.01923077 18.4166648,9.12820404 18.7884615,9.34615385 C19.1602583,9.56410365 19.4551271,9.8589725 19.6730769,10.2307692 C19.8910267,10.602566 20,10.9999979 20,11.4230769 L20,16.2307692 L16.8076923,16.2307692 L16.8076923,19.4230769 L7.19230769,19.4230769 L7.19230769,16.2307692 L4,16.2307692 L4,11.4230769 C4,10.9999979 4.10897327,10.602566 4.32692308,10.2307692 C4.54487288,9.8589725 4.83974173,9.56410365 5.21153846,9.34615385 C5.58333519,9.12820404 5.98076712,9.01923077 6.40384615,9.01923077 L17.5961538,9.01923077 Z"/>
</svg>

<svg xmlns="http://www.w3.org/2000/svg" width="24" height="24">
    <path fill-rule="evenodd" d="M16.808 5v3.192H7.192V5h9.616zm.788 7.212c.23 0 .426-.077.587-.231.16-.154.24-.34.24-.558a.81.81 0 0 0-.24-.577.783.783 0 0 0-.587-.25c-.23 0-.42.08-.567.24a.835.835 0 0 0-.221.587.776.776 0 0 0 .788.789zm-2.404 5.596v-3.981H8.808v3.98h6.384zm2.404-8.789c.423 0 .82.11 1.192.327.372.218.667.513.885.885.218.372.327.769.327 1.192v4.808h-3.192v3.192H7.192v-3.192H4v-4.808c0-.423.109-.82.327-1.192.218-.372.513-.667.885-.885a2.316 2.316 0 0 1 1.192-.327h11.192z"/>
</svg>
